!!!!SEGMENT: pl-kk--kk-i-152--002_anonim--alleluia-ego-sum-pastor-bonus.krn
!!!cenid: 17xx:2451
!!!COM: Anonim
!!!COM-rismID: pe30004985
!!!CDT:
!!!CNT:
!!!OTL: Alleluia ego sum pastor bonus
!!!PDT:
!!!AGN: Sacred
!!!YEC: Copyright 2022 Narodowy Instytut Fryderyka Chopina (https://polishscores.org)
!!!YEM: License CC-BY-4.0 (https://creativecommons.org/licenses/by/4.0)
!!!SMS-siglum: PL-Kk
!!!SMS-shelfmark: Kk.I.152
!!!SMS-variant:
!!!SMS-altvar:
!!!SMS-shelfwork: 002 W
!!!NIFC-rismSourceID: 1001151144
!!!NIFC-rismChildID: 1001151146
!!!NIFC-islandoraID: pl-kk:3688
!!!URL-pdf-islandora: https://repozytorium.nifc.pl/islandora/object/pl-kk%3A3688/datastream/PDF/view
!!!URL-scan: https://polish.musicsources.pl/pl/lokalizacje/galeria/rekopisy/5780/1 @EN{Scan on Polish Music Sources Website} @PL{Skany w portalu Dziedzictwo Muzyki Polskiej w otwartym dostępie}
!!!IIIF:
!!!ONB-nifc: UWAGA: S – skan 2, A – skan 4, T – skan 6, B – skan 8
!!!OMD:
!!!AIN: 1 alto 1 bass 1 canto 1 tenor
!!!key: d
**kern	**text	**kern	**text	**kern	**text	**kern	**text
*part4	*part4	*part3	*part3	*part2	*part2	*part1	*part1
*staff4	*staff4	*staff3	*staff3	*staff2	*staff2	*staff1	*staff1
*I"Basso	*	*I"Tenore	*	*I"Alto	*	*I"Canto	*
*I'B	*	*I'T	*	*I'A	*	*I'S	*
*Ibass	*	*Itenor	*	*Ialto	*	*Icanto	*
*ICvox	*	*ICvox	*	*ICvox	*	*ICvox	*
*clefF4	*	*clefC4	*	*clefC3	*	*clefC1	*
*k[]	*	*k[]	*	*k[]	*	*k[b-]	*
*d:	*	*d:	*	*d:	*	*d:	*
*M3/2	*	*M3/2	*	*M3/2	*	*M3/2	*
=1	=1	=1	=1	=1	=1	=1	=1
*	*	*2\right	*	*2\right	*	*2\right	*
!	!	!	!	!LO:TX:a:t=de.	!	!	!
!	!	!	!	!LO:TX:t=P:problem=części Ego sum i Alleluja zamienione kolejnością na stronie	!	!	!
2D/	al-	2f\	al-	2a\	Al-	2dd\	al-
*2\right	*	*	*	*	*	*	*
2E\	-le-	2e\	-le-	2g\	-le-	2cc#X\	-le-
2E\	-lu-	2d\	-lu-	2a\	-lu-	2dd\	-lu-
=2	=2	=2	=2	=2	=2	=2	=2
2G\	-ja	2.d\	-ja	1g	-ja	2.b-X\	-ja
!LO:TX:t=P:problem=urwana kartka	!	!	!	!	!	!	!
1ryy	.	.	.	.	.	.	.
.	.	4c\	.	.	.	4a\	.
.	.	2B-X\	.	2d\	al-	2g/	.
=3	=3	=3	=3	=3	=3	=3	=3
2G\	al-	2d\	al-	2g\	-le-	2b-X\	al-
2A\	-le-	2d\	-le-	1e	-lu-	2a\	-le-
2A\	-lu-	2c#X\	-lu-	.	.	2a\	-lu-
=4	=4	=4	=4	=4	=4	=4	=4
1.D	-ja	1.d	-ja	1.d	-ja	1.a	-ja
=5	=5	=5	=5	=5	=5	=5	=5
!LO:TX:t=P:problem=t. 5 niewidoczny	!	!LO:TX:t=P:problem=urwana kartka	!	!	!	!	!
1.ryy	.	1ryy	.	2f\	al-	2a\	al-
.	.	.	.	2e\	-le-	2a\	-le-
.	.	2d\	lu-	2f\	-lu-	2a\	-lu-
=6	=6	=6	=6	=6	=6	=6	=6
1.G	ja	1.c#X	-ja	1e	-ja	1.a	-ja
.	.	.	.	2a\	al-	.	.
=7	=7	=7	=7	=7	=7	=7	=7
!LO:TX:t=P:problem=t. 7-9 niewidoczne	!	!	!	!	!	!LO:TX:t=P:problem=t. 7-8 niewidoczne	!
1.ryy	.	2d\	al-	1f	-le-	1.ryy	.
.	.	2ryy	.	.	.	.	.
.	.	2d\	-lu	2f\	-lu-	.	.
=8	=8	=8	=8	=8	=8	=8	=8
!	!	!LO:TX:t=P:problem=t. 8-10 niewidoczne	!	!	!	!	!
1.ryy	.	1.ryy	.	1g	-ja	1.ryy	.
.	.	.	.	2g\	al-	.	.
!	!	!	!	!LO:LB:g=original	!	!LO:LB:g=original	!
=9	=9	=9	=9	=9	=9	=9	=9
1.ryy	.	1.ryy	.	2f\	-le-	2a\	le-
.	.	.	.	2f\	-lu-	1g	-lu-
.	.	.	.	2e\	.	.	.
!LO:LB:g=original	!	!	!	!	!	!	!
=10	=10	=10	=10	=10	=10	=10	=10
1F,<	ja	1.ryy	.	1.f	-ja	1.f	-ja
2C/	al-	.	.	.	.	.	.
!	!	!LO:LB:g=original	!	!	!	!	!
=11	=11	=11	=11	=11	=11	=11	=11
!	!	!	!	!	!	!LO:TX:a:t=I	!
2.F\	-le-	2r	.	2r	.	1.r	.
.	.	2r	.	2r	.	.	.
4G\	.	.	.	.	.	.	.
(4F\	-lu-	2A/	al-	2c/	al-	.	.
4E\)	.	.	.	.	.	.	.
=12	=12	=12	=12	=12	=12	=12	=12
1D,<	-ja	(2.d\	-le-	2.f\	-le-	2r	.
.	.	.	.	.	.	2r	.
.	.	4e\)	.	4g\	.	.	.
2D/	al-	(4d\	-lu-	(4f\	-lu-	2a\	al-
.	.	4c\)	.	4e\)	.	.	.
=13	=13	=13	=13	=13	=13	=13	=13
2.G\	-le-	1Bn	-ja	1d,<	-ja	2.bn\	-le-
4A\	.	.	.	.	.	4cc\	.
(4G\	-lu-	2B\	al-	2d\	al-	(4bn\	-lu-
4F\)	.	.	.	.	.	4a\)	.
=14	=14	=14	=14	=14	=14	=14	=14
1E,<	-ja	(2.e\	-le-	2.g\	-le-	1g,<	-ja
.	.	4f\)	.	4a\	.	.	.
2E\	al-	(4e\	-lu-	(4g\	-lu-	2g/	al-
.	.	4d\)	.	4f\)	.	.	.
=15	=15	=15	=15	=15	=15	=15	=15
2.A\	-le-	1c,<	-ja	1e	-ja	2.cc\	-le-
4B-X\	.	.	.	.	.	4dd\	.
(4A\	-lu-	2c\	al-	2e\	al-	4cc\	-lu-
4G\)	.	.	.	.	.	4bn\	.
=16	=16	=16	=16	=16	=16	=16	=16
1F	-ja	1d	-le-	1f	-le-	1a	-ja
[2D/	al-	[<2f\	.	[<2a\	.	[<2dd\	al-
!	!	!	!	!	!	!LO:LB:g=original	!
=17	=17	=17	=17	=17	=17	=17	=17
4D/]	.	2f\]	.	2a\]	.	4dd\]	.
4D/	-le-	.	.	.	.	4dd\	-le-
1E	-lu-	1e	-lu-	1g#X	-lu-	1bn	-lu-
=18	=18	=18	=18	=18	=18	=18	=18
1.AA	-ja.	1.e	-ja	1.a	-ja	1.cc#X	-ja
!LO:LB:g=original	!	!	!	!LO:LB:g=original	!	!	!
=19	=19	=19	=19	=19	=19	=19	=19
2A\	al-	2e\	al-	2a\	al-	2ccn\	al-
2G#X\	-le-	2e\	-le-	2e\	-le-	2bn\	-le-
2A\	-lu-	2e\	-lu-	2a\	-lu-	2cc\	-lu-
=20	=20	=20	=20	=20	=20	=20	=20
1.E	-ja	1.e	-ja	1.g#X	-ja	1.bn	-ja
!	!	!LO:LB:g=original	!	!	!	!	!
=21	=21	=21	=21	=21	=21	=21	=21
2F\	al-	2c\	al-	2a\	al-	2a\	al-
2E\	-le-	2c\	-le-	2e\	-le-	2gn/	-le-
2F\	-lu-	2d\	-lu-	2a\	-lu-	2a\	-lu-
=22	=22	=22	=22	=22	=22	=22	=22
1C	-ja	1e	-ja	1gn	-ja	2.cc\	-ja
.	.	.	.	.	.	4b-X\	.
2D/	al-	2d\	al-	2f\	al-	[2a\	al-
=23	=23	=23	=23	=23	=23	=23	=23
2BB-X/	-le-	2d\	-le-	2f\	-le-	4a\]	.
.	.	.	.	.	.	4a\	-le-
1C	-lu-	1c	-lu-	1e	-lu-	1g	-lu-
!	!	!	!	!	!	!LO:LB:g=original	!
=24	=24	=24	=24	=24	=24	=24	=24
1FF	-ja	1c,<	-ja	2f,<\	-ja	2a\	-ja
.	.	.	.	(4f\	al-	4a\	al-
.	.	.	.	4g\)	.	4b-X\	.
2F\	al-	2c\	al-	(4f\	-le-	(4a\	-le-
.	.	.	.	4e\)	.	4g\)	.
=25	=25	=25	=25	=25	=25	=25	=25
2.B-X\	-le-	(2.d\	-le-	2d\	-lu-	1f	-lu-
.	.	.	.	2d\	-ja	.	.
4c\	.	4e\)	.	.	.	.	.
(4B-X\	-lu-	(4d\	-lu-	2d\	al-	2f/	-ja
4A\)	.	4c\)	.	.	.	.	.
=26	=26	=26	=26	=26	=26	=26	=26
1G	-ja	1B-X	-ja	2.g\	-le-	2.b-X\	al-
.	.	.	.	4a\	.	4cc\	.
2G\	al-	2B-\	al-	(4g\	-lu-	(4b-X\	-le-
.	.	.	.	4f\)	.	4a\)	.
=27	=27	=27	=27	=27	=27	=27	=27
2.A\	-le-	2.c\	-le-	1e	-ja	1g	-lu-
4B-X\	-lu-	4d\	.	.	.	.	.
4A\	.	(4c\	-lu-	2e\	al-	2g/	-ja
4G\	.	4B-X\)	.	.	.	.	.
!LO:LB:g=original	!	!	!	!LO:LB:g=original	!	!	!
=28	=28	=28	=28	=28	=28	=28	=28
1F	-ja	1A	-ja	2.a\	-le-	(2cc\	al-
.	.	.	.	.	.	1dd)	.
.	.	.	.	4b-X\	.	.	.
2D/	al-	2A/	al-	(4a\	-lu-	.	.
.	.	.	.	4g\)	.	.	.
=29	=29	=29	=29	=29	=29	=29	=29
1B-X	-le-	1d	-le-	1f	-ja	[<1.dd	-le-
[<2G\	.	[<2B-X\	.	[<2g\	al-	.	.
!	!	!LO:LB:g=original	!	!	!	!	!
=30	=30	=30	=30	=30	=30	=30	=30
2G\]	.	2B-\]	.	4g\]	.	2dd\]	.
.	.	.	.	4g\	-le-	.	.
1A	-lu-	1A	-lu-	1e	-lu-	1cc#X	-lu-
=31	=31	=31	=31	=31	=31	=31	=31
1.D	-ja.	1.A	-ja	1.d	-ja.	1.dd	-ja.
!	!	!	!	!LO:PB:g=original	!	!LO:LB:g=original	!
=32||	=32||	=32||	=32||	=32||	=32||	=32||	=32||
*k[]	*	*k[]	*	*k[]	*	*k[]	*
*M2/2	*	*M2/2	*	*M2/2	*	*M2/2	*
*met(c|)	*	*met(c|)	*	*met(c|)	*	*met(c|)	*
!	!	!LO:TX:a:t=1.	!	!	!	!	!
0r	.	1r	.	2r	.	00r	.
.	.	.	.	2a\	e-	.	.
=33	=33	=33	=33	=33	=33	=33	=33
.	.	2r	.	4b-X\	-go	.	.
.	.	.	.	4a\	sum	.	.
.	.	2d\	e-	4g\	Paſ-	.	.
.	.	.	.	4b-\	-tor	.	.
=34	=34	=34	=34	=34	=34	=34	=34
1r	.	4f\	-go	4a\	bo-	.	.
.	.	4e\	sum	4g\	-n(us)	.	.
.	.	4d\	Paſ-	4f\	et	.	.
.	.	4f\	-tor	4a\	co-	.	.
=35	=35	=35	=35	=35	=35	=35	=35
2r	.	4e\	bo-	4g\	-gno-	.	.
.	.	4d\	-n(us)	4f\	-ſco	.	.
2A\	e-	4c\	et	4e\	o-	.	.
.	.	4e\	co-	4a\	-ves	.	.
=36	=36	=36	=36	=36	=36	=36	=36
4B-X\	-go	4d\	-gno-	2d\	me-	2r	.
4A\	sum	4c\	-ſco	.	.	.	.
4G\	Paſ-	4B-X\	o-	2d\	-as	2dd\	E-
4B-X\	-tor	4d\	-ves	.	.	.	.
=37	=37	=37	=37	=37	=37	=37	=37
!	!	!	!	!LO:TX:t=P:problem=urwana kartka	!	!	!
4A\	bo-	2c\	me-	2ryy	.	4ff\	-go
4G\	-n(us)	.	.	.	.	4ee\	ſum
4F\	et	2d\	.	4a\	co-	4dd\	Paſ-
4A\	co-	.	.	4d\	-gno	4ff\	-tor
=38	=38	=38	=38	=38	=38	=38	=38
4G\	-gno-	1e	.	1ryy	.	4ee\	bo-
4F\	-ſco	.	.	.	.	4dd\	-n(us)
4E\	o-	.	.	.	.	4cc\	et
4G\	-veſ	.	.	.	.	4ee\	co-
!LO:LB:g=original	!	!	!	!	!	!	!
=39	=39	=39	=39	=39	=39	=39	=39
4F\	me-	2A/	-aſ	1ryy	.	4dd\	-gno-
4D/	-as	.	.	.	.	4cc\	-ſco
[<2G\	co-	2r	.	.	.	4bn\	o-
.	.	.	.	.	.	4dd\	-ves
!	!	!LO:LB:g=original	!	!	!	!	!
=40	=40	=40	=40	=40	=40	=40	=40
2G\]	.	2e\	et	1ryy	.	4cc\	me
.	.	.	.	.	.	4a\	as
2F\	.	2d\	co-	.	.	[<2dd\	co-
!	!	!	!	!LO:LB:g=original	!	!	!
=41	=41	=41	=41	=41	=41	=41	=41
2E\	-gno-	2e\	-gno-	2g#X\	me	2dd\]	.
2F\	.	4A/	-ſcunt	[<2a\	me-	2cc\	.
.	.	4A/	me	.	.	.	.
!	!	!	!	!	!	!LO:LB:g=original	!
=42	=42	=42	=42	=42	=42	=42	=42
2D/	.	2d\	me-	2a\]	.	1bn	-gno-
2E\	.	2Bn\	.	2g#X\	.	.	.
=43	=43	=43	=43	=43	=43	=43	=43
1AA	-sco	2c,<\	-ae	1a	-ae	1a	-ſco
.	.	2A/	E-	.	.	.	.
=44	=44	=44	=44	=44	=44	=44	=44
!	!	!	!	!LO:TX:a:t=2	!	!	!
2r	.	4B-X\	-go	0r	.	00r	.
.	.	4A\	sum	.	.	.	.
2D/	e-	4G\	Paſ-	.	.	.	.
.	.	4B-X\	-tor	.	.	.	.
=45	=45	=45	=45	=45	=45	=45	=45
4F\	-go	4A\	bo-	.	.	.	.
4E\	sum	4G\	-n(us)	.	.	.	.
4D\	Paſ-	4F/	et	.	.	.	.
4F\	-tor	4A/	co-	.	.	.	.
=46	=46	=46	=46	=46	=46	=46	=46
4E\	bo-	4G/	-gno-	2r	.	.	.
4D\	-n(us)	4F/	-ſco	.	.	.	.
4C\	et	4E/	o-	2e\	e-	.	.
4E\	co-	4G/	-ves	.	.	.	.
=47	=47	=47	=47	=47	=47	=47	=47
4D\	-gno-	1F	me-	4f\	-go	.	.
4C\	-ſco	.	.	4e\	ſum	.	.
4BB\	o-	.	.	4d\	Paſ-	.	.
4D\	-ves	.	.	4f\	-tor	.	.
=48	=48	=48	=48	=48	=48	=48	=48
(4C/	me-	1G	-as	4e\	bo-	1r	.
4BB/)	.	.	.	4d\	-n(us)	.	.
4AA,</	-as	.	.	4c\	et	.	.
4C/	et	.	.	4e\	co-	.	.
!LO:LB:g=original	!	!	!	!	!	!	!
=49	=49	=49	=49	=49	=49	=49	=49
2.D/	co-	2d\	et	4d\	-gno-	2r	.
.	.	.	.	4e\	-ſco	.	.
.	.	2d\	co-	[<2f\	o-	2a\	e-
(8E\L	.	.	.	.	.	.	.
8F\J)	.	.	.	.	.	.	.
!	!	!LO:LB:g=original	!	!	!	!	!
=50	=50	=50	=50	=50	=50	=50	=50
1G	-gno-	(4d\	-gno-	2f\]	.	4b-X\	-go
.	.	4c\)	.	.	.	4a\	sum
.	.	(4B-X\	-scunt	[<2e\	-ves	4g\	Paſ-
.	.	4G\)	.	.	.	4b-X\	-tor
=51	=51	=51	=51	=51	=51	=51	=51
1F	-scunt	(4c\	me	2e\]	.	4a\	bo-
.	.	4B-X\)	.	.	.	4g\	-n(us)
.	.	4A,<\	.	[<2d\	me-	4f/	et
.	.	4F/	co-	.	.	4a\	co-
!	!	!	!	!LO:LB:g=original	!	!	!
=52	=52	=52	=52	=52	=52	=52	=52
1E	me	2G/	-gno-	2d\]	.	4g/	-gno-
.	.	.	.	.	.	4f/	-ſco
.	.	2G/	-ſcunt	[2c/	-as	4e/	o-
.	.	.	.	.	.	4g/	-ves
=53	=53	=53	=53	=53	=53	=53	=53
2D/	me-	1A	me	2c/]	.	4f/	me-
.	.	.	.	.	.	4d,</	-as
2BB-X/	.	.	.	2d\	co-	[2f/	co-
=54	=54	=54	=54	=54	=54	=54	=54
1C	.	1G	me-	1c	-gnos-	2f/]	.
.	.	.	.	.	.	2e/	-gnos-
=55	=55	=55	=55	=55	=55	=55	=55
1F	-ae	2F,</	-ae	1c	-co	1f	-co
.	.	2c\	e-	.	.	.	.
!	!	!	!	!	!	!LO:LB:g=original	!
=56	=56	=56	=56	=56	=56	=56	=56
1F	co-	4d\	-go	0r	.	1r	.
.	.	4c\	sum	.	.	.	.
.	.	4B-X\	Paſ-	.	.	.	.
.	.	4d\	-tor	.	.	.	.
=57	=57	=57	=57	=57	=57	=57	=57
2F\	-gno-	4c\	bo-	.	.	2r	.
.	.	4B-X\	-n(us)	.	.	.	.
2F\	-ſcunt	4A\	et	.	.	2cc\	e-
.	.	4c\	co-	.	.	.	.
=58	=58	=58	=58	=58	=58	=58	=58
1F	me	4B-X\	-gno-	1r	.	4dd\	-go
.	.	4A\	-ſco	.	.	4cc\	sum
.	.	4G\	o-	.	.	4b-X\	Paſ-
.	.	4B-X\	-ves	.	.	4dd\	-tor
!	!	!LO:LB:g=original	!	!	!	!	!
=59	=59	=59	=59	=59	=59	=59	=59
1F	me-	4A/	me-	2r	.	4cc\	bo-
.	.	4G/	.	.	.	4b-X\	-n(us)
.	.	4F/	.	2c/	e-	4a\	et
.	.	4E/	.	.	.	4cc\	cog-
=60	=60	=60	=60	=60	=60	=60	=60
1F	-ae	2F/	-aſ	4d\	-go	4b-X\	-no-
.	.	.	.	4c\	ſum	4a\	-ſco
.	.	4F/	et	4B-X\	Paſ-	4g\	o-
.	.	4F/	co-	4d\	-tor	4b-X\	-ves
=61	=61	=61	=61	=61	=61	=61	=61
2r	.	2c\	-gno-	4c\	bo-	(4a\	me-
.	.	.	.	4B-X\	-n(us)	4g\)	.
2A\	e-	2c\	-ſcunt	4A/	et	4f,<\	-aſ
.	.	.	.	4c\	co-	4a\	et
=62	=62	=62	=62	=62	=62	=62	=62
4B-X\	-go	1d	me	4B-X/	-gno-	(4dd\	co-
4A\	-ſum	.	.	4G/	-ſco	4cc\)	.
4G\	Paſ-	.	.	[<2g\	o-	4dd\	-gno-
4B-X\	-tor	.	.	.	.	4b-X\	-ſcunt
!LO:LB:g=original	!	!	!	!	!	!	!
=63	=63	=63	=63	=63	=63	=63	=63
4A\	bo-	4A\	me-	2g\]	.	2cc,<\	me
4G\	-n(us)	4B-X\	.	.	.	.	.
4A\	et	4c\	.	2f\	-veſ	[<2ff\	co-
4F\	co-	4A\	.	.	.	.	.
!	!	!	!	!LO:LB:g=original	!	!	!
=64	=64	=64	=64	=64	=64	=64	=64
4G\	-gno-	1B-X	-ae	1g	me-	2ff\]	.
4F\	-ſco	.	.	.	.	.	.
4G\	o-	.	.	.	.	[<2ee\	-gno-
4E\	-veſ	.	.	.	.	.	.
=65	=65	=65	=65	=65	=65	=65	=65
(4F\	me-	2r	.	1a	-aſ	2ee\]	.
4G\	.	.	.	.	.	.	.
!	!	!	!	!	!	!LO:LB:g=original	!
=-	=-	=-	=-	=-	=-	=-	=-
4F\	.	2d\	e-	.	.	4.dd\	-scunt
4E\)	.	.	.	.	.	.	.
.	.	.	.	.	.	8cc#X\	me
=66	=66	=66	=66	=66	=66	=66	=66
2D,</	-aſ	4f\	-go	2r	.	1dd	me-
.	.	4e\	ſum	.	.	.	.
2D/	et	4d\	Paſ-	2a\	e-	.	.
.	.	4f\	-tor	.	.	.	.
=67	=67	=67	=67	=67	=67	=67	=67
1D	co-	4g\	bo-	4b-X\	-go	1g	-ae
.	.	4f\	-nus	4a\	sum	.	.
.	.	4e\	et	4g\	Paſ-	.	.
.	.	4g\	co-	4b-X\	-tor	.	.
!	!	!LO:LB:g=original	!	!	!	!	!
=68	=68	=68	=68	=68	=68	=68	=68
1D	-gno-	4f\	-gno-	4a\	bo-	2r	.
.	.	4e\	-ſco	4g\	-n(us)	.	.
.	.	4d\	o-	4f\	et	2a\	e-
.	.	4c#X\	-ves	4a\	co-	.	.
=69	=69	=69	=69	=69	=69	=69	=69
1D	-scunt	2d\	me-	4g\	-gno-	4b-X\	-go
.	.	.	.	4f\	-ſco	4a\	ſum
.	.	2d\	-as	4g\	o-	4g\	Paſ-
.	.	.	.	4e\	-ves	4b-X\	-tor
=70	=70	=70	=70	=70	=70	=70	=70
1D	me	(4f\	et	2f\	me-	4a\	bo-
.	.	4e\)	.	.	.	4g\	-n(us)
.	.	(4d\	co-	2f\	-aſ	4f\	et
.	.	4f\)	.	.	.	4a\	co-
=71	=71	=71	=71	=71	=71	=71	=71
1D	et	(4e\	-gno-	2g\	et	4g\	-gno-
.	.	4d\)	.	.	.	4f\	-ſco
.	.	(4e\	-ſcunt	2g\	co-	4g\	o-
.	.	4c#X\)	.	.	.	4e/	-veſ
=72	=72	=72	=72	=72	=72	=72	=72
1D	co-	2d\	me	4f\	-gno-	4a\	me-
.	.	.	.	4f\	-ſcunt	4a,<\	-as
.	.	4d\	et	4f\	et	4a\	et
.	.	4d\	co-	4f\	co-	4a\	co-
!	!	!	!	!LO:LB:g=original	!	!	!
=73	=73	=73	=73	=73	=73	=73	=73
2GG#X/	-gno-	2d\	-gno-	2f\	-gno-	2bn\	-gno-
4GG#/	-scunt	4d\	-ſcunt	4f\	-ſcunt	4b\	-ſcunt
4GG#/	me	4d\	me	4f\	me	4b\	me
!LO:LB:g=original	!	!	!	!	!	!	!
=74	=74	=74	=74	=74	=74	=74	=74
[>1AA	me-	2c#X\	me-	2e\	me-	[<1a	me-
.	.	[<2d\	.	2f\	.	.	.
=75	=75	=75	=75	=75	=75	=75	=75
1AA]	.	2d\]	.	1e	.	1a]	.
.	.	2c#X\	.	.	.	.	.
=76	=76	=76	=76	=76	=76	=76	=76
!LO:TX:b:i:t=alleluja reperatur.	!	!LO:TX:b:i:t=alleluja reperatur.	!	!LO:TX:b:i:t=alleluja (..) infra.\nreperatur.	!	!LO:TX:b:i:t=alleluja (......)\nreperatur.	!
0D	-ae.	0d;<	-ae.	0d	-ae	0a;<	-ae
==	==	==	==	==	==	==	==
*-	*-	*-	*-	*-	*-	*-	*-
!!!system-decoration: [(s1,s2,s3,s4)]
!!!RDF**kern: < = below
!!!RDF**kern: > = above
!!!ENC: Filip Voros
!!!END: 2023-10-29
!!!EED: Marta Chmielewska
!!!EEV: 2024-05-05
